svg/nature/mountain_2_fill.svg

<svg xmlns="http://www.w3.org/2000/svg" width="24" height="24" viewBox="0 0 24 24"><g fill="none" fill-rule="evenodd"><path d="M24,0 L24,24 L0,24 L0,0 L24,0 Z M12.5935,23.2578 L12.5819,23.2595 L12.5109,23.295 L12.4919,23.2987 L12.4767,23.295 L12.4057,23.2595 C12.3958,23.2564 12.387,23.259 12.3821,23.2649 L12.378,23.2758 L12.3609,23.7031 L12.3659,23.7235 L12.3769,23.7357 L12.4805,23.8097 L12.4953,23.8136 L12.5071,23.8097 L12.6107,23.7357 L12.6233,23.7197 L12.6267,23.7031 L12.6096,23.2758 C12.6076,23.2657 12.601,23.2593 12.5935,23.2578 Z M12.8584,23.1453 L12.8445,23.1473 L12.6598,23.2397 L12.6499,23.2499 L12.6472,23.2611 L12.6651,23.6906 L12.6699,23.7034 L12.6784,23.7105 L12.8793,23.8032 C12.8914,23.8069 12.9022,23.803 12.9078,23.7952 L12.9118,23.7812 L12.8777,23.1665 C12.8753,23.1546 12.8674,23.147 12.8584,23.1453 Z M12.143,23.1473 C12.1332,23.1424 12.1222,23.1453 12.1156,23.1526 L12.1099,23.1665 L12.0758,23.7812 C12.0751,23.7927 12.0828,23.8019 12.0926,23.8046 L12.1083,23.8032 L12.3092,23.7105 L12.3186,23.7024 L12.3225,23.6906 L12.3404,23.2611 L12.3372,23.2485 L12.3278,23.2397 L12.143,23.1473 Z"/><path fill="#09244B" d="M8.70098,5.75 C9.27833,4.75 10.7217,4.75 11.2991,5.75 L14.7991,11.8122 L15.701,10.25 C16.2784,9.25 17.7217,9.25 18.2991,10.25 L22.6292,17.75 C23.2066,18.75 22.4849,20 21.3302,20 L17.0001,20 L17.0001,19.9984 C16.9763,19.9995 16.9524,20 16.9282,20 L3.07182,20 C1.91711,20 1.19543,18.75 1.77278,17.75 L8.70098,5.75 Z M7.79128,11.3256 L8.50004,11.7981 L9.44534,11.1679 C9.78124,10.944 10.2188,10.944 10.5547,11.1679 L11.5,11.7981 L12.2088,11.3257 L10,7.5 L7.79128,11.3256 Z"/></g></svg>

<svg xmlns="http://www.w3.org/2000/svg" width="24" height="24"><g fill="none" fill-rule="evenodd"><path d="M24 0v24H0V0zM12.594 23.258l-.012.002-.071.035-.02.004-.014-.004-.071-.036c-.01-.003-.019 0-.024.006l-.004.01-.017.428.005.02.01.013.104.074.015.004.012-.004.104-.074.012-.016.004-.017-.017-.427c-.002-.01-.009-.017-.016-.018m.264-.113-.014.002-.184.093-.01.01-.003.011.018.43.005.012.008.008.201.092c.012.004.023 0 .029-.008l.004-.014-.034-.614c-.003-.012-.01-.02-.02-.022m-.715.002a.023.023 0 0 0-.027.006l-.006.014-.034.614c0 .012.007.02.017.024l.015-.002.201-.093.01-.008.003-.011.018-.43-.003-.012-.01-.01z"/><path fill="#09244B" d="M8.701 5.75c.577-1 2.02-1 2.598 0l3.5 6.062.902-1.562c.577-1 2.02-1 2.598 0l4.33 7.5A1.5 1.5 0 0 1 21.33 20H17v-.002a1.555 1.555 0 0 1-.072.002H3.072a1.5 1.5 0 0 1-1.3-2.25zm-.91 5.576.709.472.945-.63a1 1 0 0 1 1.11 0l.945.63.709-.472L10 7.5z"/></g></svg>
